svg/calendar_export.svg

<svg xmlns="http://www.w3.org/2000/svg" viewBox="0 0 24 24"><path d="m12 22 4-4h-3v-6h-2v6H8M19 4h-1V2h-2v2H8V2H6v2H5a2 2 0 0 0-2 2v14a2 2 0 0 0 2 2h3v-2H5V9h14v11h-3v2h3a2 2 0 0 0 2-2V6a2 2 0 0 0-2-2"/></svg>

<?xml version="1.0" encoding="UTF-8"?><!DOCTYPE svg PUBLIC "-//W3C//DTD SVG 1.1//EN" "http://www.w3.org/Graphics/SVG/1.1/DTD/svg11.dtd"><svg xmlns="http://www.w3.org/2000/svg" xmlns:xlink="http://www.w3.org/1999/xlink" version="1.1" id="mdi-calendar-export" width="24" height="24" viewBox="0 0 24 24"><path d="M12,22L16,18H13V12H11V18H8M19,4H18V2H16V4H8V2H6V4H5A2,2 0 0,0 3,6V20A2,2 0 0,0 5,22H8V20H5V9H19V20H16V22H19A2,2 0 0,0 21,20V6A2,2 0 0,0 19,4Z" /></svg>
